assets/Custard/Flat/custard_flat.svg

<svg width="32" height="32" viewBox="0 0 32 32" fill="none" xmlns="http://www.w3.org/2000/svg">
<path d="M24.6888 19L24.4119 18.8604L15.9884 17.8604L7.56486 18.8604L7.34346 19L5.60999 26H26.38L24.6888 19Z" fill="#F3AD61"/>
<path d="M9.83998 15C8.95998 15 8.17998 15.61 7.96998 16.47L7.96804 16.4778L7.34344 19H24.6888L24.08 16.48C23.88 15.61 23.1 15 22.21 15H9.83998Z" fill="#A56953"/>
<path d="M9.84 15C8.96 15 8.18 15.61 7.97 16.47L7.34 19H24.7L24.09 16.48C23.88 15.61 23.1 15 22.21 15H9.84Z" fill="#A56953"/>
<path d="M21.0608 19L22.9275 26.8373C23.0275 27.257 23.4488 27.5162 23.8685 27.4162C24.2882 27.3163 24.5474 26.895 24.4475 26.4752L22.667 19H21.0608Z" fill="#FFDEA7"/>
<path d="M22.4 17.879C22.3 17.4592 21.8787 17.2 21.459 17.3C21.0393 17.4 20.78 17.8213 20.88 18.241L21.0608 19H22.667L22.4 17.879Z" fill="#E39D89"/>
<path d="M4 28C5.28 29.28 7.02 30 8.83 30H23.17C24.98 30 26.72 29.28 28 28L16 27L4 28Z" fill="#9B9B9B"/>
<path d="M29 28H3C2.45 28 2 27.55 2 27C2 26.45 2.45 26 3 26H29C29.55 26 30 26.45 30 27C30 27.55 29.55 28 29 28Z" fill="#D3D3D3"/>
</svg>

<svg xmlns="http://www.w3.org/2000/svg" width="32" height="32" fill="none"><path fill="#F3AD61" d="m24.689 19-.277-.14-8.424-1-8.423 1-.222.14-1.733 7h20.77l-1.691-7Z"/><path fill="#A56953" d="M9.84 15c-.88 0-1.66.61-1.87 1.47l-.002.008L7.343 19H24.69l-.609-2.52c-.2-.87-.98-1.48-1.87-1.48H9.84Z"/><path fill="#A56953" d="M9.84 15c-.88 0-1.66.61-1.87 1.47L7.34 19H24.7l-.61-2.52c-.21-.87-.99-1.48-1.88-1.48H9.84Z"/><path fill="#FFDEA7" d="m21.06 19 1.867 7.837a.781.781 0 0 0 1.52-.362L22.668 19h-1.606Z"/><path fill="#E39D89" d="M22.4 17.879a.781.781 0 1 0-1.52.362l.18.759h1.607l-.267-1.121Z"/><path fill="#9B9B9B" d="M4 28c1.28 1.28 3.02 2 4.83 2h14.34c1.81 0 3.55-.72 4.83-2l-12-1-12 1Z"/><path fill="#D3D3D3" d="M29 28H3c-.55 0-1-.45-1-1s.45-1 1-1h26c.55 0 1 .45 1 1s-.45 1-1 1Z"/></svg>
